bots/nucleus/seasonal/trans.svg

<svg width="2048" height="2048" fill="none" xmlns="http://www.w3.org/2000/svg"><path fill="#71AFE5" d="M0 0h2048v2048H0z"/><circle cx="1023.99" cy="1024" r="264" fill="#fff"/><path d="M1856 1024c0 70.69-57.31 128-128 128s-128-57.31-128-128c0-70.692 57.31-128 128-128s128 57.308 128 128ZM1612.31 1612.31c-49.98 49.99-131.03 49.99-181.02 0-49.98-49.98-49.98-131.03 0-181.02 49.99-49.98 131.04-49.98 181.02 0 49.99 49.99 49.99 131.04 0 181.02ZM1024 1856c-70.692 0-128-57.31-128-128s57.308-128 128-128c70.69 0 128 57.31 128 128s-57.31 128-128 128ZM435.687 1612.31c-49.987-49.98-49.987-131.03 0-181.02 49.987-49.98 131.032-49.98 181.019 0 49.988 49.99 49.988 131.04 0 181.02-49.987 49.99-131.032 49.99-181.019 0ZM448 1024c0 70.69-57.308 128-128 128-70.692 0-128-57.31-128-128 0-70.692 57.308-128 128-128 70.692 0 128 57.308 128 128ZM616.707 616.706c-49.988 49.988-131.033 49.988-181.02 0-49.987-49.987-49.987-131.032 0-181.019 49.987-49.987 131.032-49.987 181.02 0 49.987 49.987 49.987 131.032 0 181.019ZM1024 448c-70.692 0-128-57.308-128-128 0-70.692 57.308-128 128-128 70.69 0 128 57.308 128 128 0 70.692-57.31 128-128 128ZM1431.29 616.706c-49.98-49.987-49.98-131.032 0-181.019 49.99-49.987 131.04-49.987 181.02 0 49.99 49.987 49.99 131.032 0 181.02-49.98 49.987-131.03 49.987-181.02-.001Z" fill="#fff"/><path fill-rule="evenodd" clip-rule="evenodd" d="M1734.74 832.116c-16.68-61.929-41.24-120.628-72.53-174.955-1.52 1.62-3.06 3.221-4.64 4.8-14.13 14.126-29.91 25.591-46.72 34.395a667.83 667.83 0 0 1 59.85 144.341c18.09-5.651 37.34-8.697 57.3-8.697 2.25 0 4.5.039 6.74.116Zm-49.54 312.554c7.09-39.15 10.8-79.48 10.8-120.67 0-41.193-3.71-81.521-10.8-120.668 13.38-4.748 27.79-7.332 42.8-7.332 7.23 0 14.31.599 21.21 1.75 7.09 41.02 10.79 83.203 10.79 126.25 0 43.05-3.7 85.23-10.79 126.25-6.9 1.15-13.98 1.75-21.21 1.75-15.01 0-29.42-2.58-42.8-7.33Zm-108.39-502.857a675.794 675.794 0 0 0-170.62-170.623c6.11-12.841 14.47-24.874 25.1-35.503 5.1-5.095 10.52-9.67 16.19-13.726a740.262 740.262 0 0 1 178.56 178.559 128.826 128.826 0 0 1-13.73 16.187c-10.63 10.629-22.66 18.997-35.5 25.106Zm-185.97-256.02c-1.62 1.513-3.22 3.06-4.8 4.639-14.13 14.126-25.59 29.906-34.4 46.716a667.71 667.71 0 0 0-144.34-59.844c5.65-18.097 8.7-37.345 8.7-57.304 0-2.255-.04-4.501-.12-6.737 61.93 16.679 120.63 41.236 174.96 72.53Zm-493.09-87.006C938.77 291.696 980.953 288 1024 288c43.05 0 85.23 3.696 126.25 10.787 1.15 6.9 1.75 13.986 1.75 21.213 0 15.012-2.58 29.42-7.33 42.804C1105.52 355.706 1065.19 352 1024 352c-41.193 0-81.521 3.706-120.668 10.804C898.584 349.42 896 335.012 896 320c0-7.227.599-14.313 1.75-21.213Zm-65.634 14.476c-61.929 16.679-120.628 41.236-174.955 72.53a195.58 195.58 0 0 1 4.8 4.639c14.126 14.126 25.591 29.906 34.394 46.716a667.892 667.892 0 0 1 144.342-59.844C835.045 359.207 832 339.959 832 320c0-2.255.039-4.501.116-6.737ZM641.813 471.19A675.757 675.757 0 0 0 471.19 641.813c-12.841-6.109-24.874-14.477-35.503-25.107a128.795 128.795 0 0 1-13.726-16.186A740.151 740.151 0 0 1 600.52 421.961a128.875 128.875 0 0 1 16.187 13.726c10.629 10.629 18.997 22.662 25.106 35.503Zm-256.02 185.971a195.58 195.58 0 0 0 4.639 4.8c14.126 14.126 29.906 25.591 46.716 34.394a667.892 667.892 0 0 0-59.844 144.342C359.207 835.046 339.959 832 320 832c-2.255 0-4.501.039-6.737.116 16.679-61.929 41.236-120.628 72.53-174.955Zm-87.006 493.089C291.696 1109.23 288 1067.05 288 1024c0-43.047 3.696-85.23 10.787-126.25 6.9-1.151 13.986-1.75 21.213-1.75 15.012 0 29.42 2.584 42.804 7.332C355.706 942.479 352 982.807 352 1024c0 41.19 3.706 81.52 10.804 120.67-13.384 4.75-27.792 7.33-42.804 7.33-7.227 0-14.313-.6-21.213-1.75ZM1728 1216c2.25 0 4.5-.04 6.74-.12-16.68 61.93-41.24 120.63-72.53 174.96-1.52-1.62-3.06-3.22-4.64-4.8-14.13-14.13-29.91-25.59-46.72-34.4a667.677 667.677 0 0 0 59.85-144.34c18.09 5.65 37.34 8.7 57.3 8.7Zm-321.81 360.81a675.83 675.83 0 0 0 170.62-170.62c12.84 6.11 24.87 14.47 35.5 25.1 5.1 5.1 9.67 10.52 13.73 16.19a740.391 740.391 0 0 1-178.56 178.56c-5.67-4.06-11.09-8.63-16.19-13.73-10.63-10.63-18.99-22.66-25.1-35.5Zm-54.55 34.04a667.677 667.677 0 0 1-144.34 59.85c5.65 18.09 8.7 37.34 8.7 57.3 0 2.25-.04 4.5-.12 6.74 61.93-16.68 120.63-41.24 174.96-72.53-1.62-1.52-3.22-3.06-4.8-4.64-14.13-14.13-25.59-29.91-34.4-46.72Zm-201.39 138.36c-41.02 7.09-83.2 10.79-126.25 10.79-43.047 0-85.23-3.7-126.25-10.79-1.151-6.9-1.75-13.98-1.75-21.21 0-15.01 2.584-29.42 7.332-42.8 39.147 7.09 79.475 10.8 120.668 10.8 41.19 0 81.52-3.71 120.67-10.8 4.75 13.38 7.33 27.79 7.33 42.8 0 7.23-.6 14.31-1.75 21.21Zm-309.553-78.51c-5.651 18.09-8.697 37.34-8.697 57.3 0 2.25.039 4.5.116 6.74-61.929-16.68-120.628-41.24-174.955-72.53 1.62-1.52 3.221-3.06 4.8-4.64 14.126-14.13 25.591-29.91 34.394-46.72a667.86 667.86 0 0 0 144.342 59.85ZM471.19 1406.19a675.794 675.794 0 0 0 170.623 170.62c-6.109 12.84-14.478 24.87-25.107 35.5a128.746 128.746 0 0 1-16.186 13.73 740.262 740.262 0 0 1-178.559-178.56 129.544 129.544 0 0 1 13.726-16.19c10.629-10.63 22.662-18.99 35.503-25.1Zm-34.042-54.55a667.71 667.71 0 0 1-59.844-144.34c-18.097 5.65-37.345 8.7-57.304 8.7-2.255 0-4.501-.04-6.737-.12 16.679 61.93 41.236 120.63 72.53 174.96 1.513-1.62 3.06-3.22 4.639-4.8 14.126-14.13 29.906-25.59 46.716-34.4Z" fill="#BF5E9F"/><path d="M1024 448c-70.692 0-128-57.308-128-128 0-70.692 57.308-128 128-128 70.69 0 128 57.308 128 128 0 70.692-57.31 128-128 128ZM1431.29 616.706c-49.98-49.987-49.98-131.032 0-181.019 49.99-49.987 131.04-49.987 181.02 0 49.99 49.987 49.99 131.032 0 181.019-49.98 49.988-131.03 49.988-181.02 0ZM1599.82 1023.82c0-70.69 57.31-127.998 128-127.998s128 57.308 128 127.998-57.31 128-128 128-128-57.31-128-128ZM1431.29 1431.29c49.99-49.98 131.04-49.98 181.02 0 49.99 49.99 49.99 131.04 0 181.02-49.98 49.99-131.03 49.99-181.02 0-49.98-49.98-49.98-131.03 0-181.02ZM1024 1856c-70.692 0-128-57.31-128-128s57.308-128 128-128c70.69 0 128 57.31 128 128s-57.31 128-128 128ZM435.688 1612.31c-49.988-49.98-49.988-131.03 0-181.02 49.987-49.98 131.032-49.98 181.019 0 49.987 49.99 49.987 131.04 0 181.02-49.987 49.99-131.032 49.99-181.019 0ZM191.822 1023.82c0-70.69 57.308-127.997 128-127.997 70.693 0 128 57.307 128 127.997 0 70.7-57.307 128-128 128-70.692 0-128-57.3-128-128ZM435.688 435.688c49.987-49.988 131.032-49.988 181.019 0 49.987 49.987 49.987 131.032 0 181.019-49.987 49.987-131.032 49.987-181.019 0-49.987-49.987-49.987-131.032 0-181.019Z" fill="#fff"/></svg>

<svg width="2048" height="2048" viewBox="0 0 2048 2048" fill="none" xmlns="http://www.w3.org/2000/svg">
<rect width="2048" height="2048" fill="#71AFE5"/>
<circle cx="1023.99" cy="1024" r="264" fill="white"/>
<path d="M1856 1024C1856 1094.69 1798.69 1152 1728 1152C1657.31 1152 1600 1094.69 1600 1024C1600 953.308 1657.31 896 1728 896C1798.69 896 1856 953.308 1856 1024Z" fill="white"/>
<path d="M1612.31 1612.31C1562.33 1662.3 1481.28 1662.3 1431.29 1612.31C1381.31 1562.33 1381.31 1481.28 1431.29 1431.29C1481.28 1381.31 1562.33 1381.31 1612.31 1431.29C1662.3 1481.28 1662.3 1562.33 1612.31 1612.31Z" fill="white"/>
<path d="M1024 1856C953.308 1856 896 1798.69 896 1728C896 1657.31 953.308 1600 1024 1600C1094.69 1600 1152 1657.31 1152 1728C1152 1798.69 1094.69 1856 1024 1856Z" fill="white"/>
<path d="M435.687 1612.31C385.7 1562.33 385.7 1481.28 435.687 1431.29C485.674 1381.31 566.719 1381.31 616.706 1431.29C666.694 1481.28 666.694 1562.33 616.706 1612.31C566.719 1662.3 485.674 1662.3 435.687 1612.31Z" fill="white"/>
<path d="M448 1024C448 1094.69 390.692 1152 320 1152C249.308 1152 192 1094.69 192 1024C192 953.308 249.308 896 320 896C390.692 896 448 953.308 448 1024Z" fill="white"/>
<path d="M616.707 616.706C566.719 666.694 485.674 666.694 435.687 616.706C385.7 566.719 385.7 485.674 435.687 435.687C485.674 385.7 566.719 385.7 616.707 435.687C666.694 485.674 666.694 566.719 616.707 616.706Z" fill="white"/>
<path d="M1024 448C953.308 448 896 390.692 896 320C896 249.308 953.308 192 1024 192C1094.69 192 1152 249.308 1152 320C1152 390.692 1094.69 448 1024 448Z" fill="white"/>
<path d="M1431.29 616.706C1381.31 566.719 1381.31 485.674 1431.29 435.687C1481.28 385.7 1562.33 385.7 1612.31 435.687C1662.3 485.674 1662.3 566.719 1612.31 616.707C1562.33 666.694 1481.28 666.694 1431.29 616.706Z" fill="white"/>
<path fill-rule="evenodd" clip-rule="evenodd" d="M1734.74 832.116C1718.06 770.187 1693.5 711.488 1662.21 657.161C1660.69 658.781 1659.15 660.382 1657.57 661.961C1643.44 676.087 1627.66 687.552 1610.85 696.356C1636.12 741.51 1656.32 789.88 1670.7 840.697C1688.79 835.046 1708.04 832 1728 832C1730.25 832 1732.5 832.039 1734.74 832.116ZM1685.2 1144.67C1692.29 1105.52 1696 1065.19 1696 1024C1696 982.807 1692.29 942.479 1685.2 903.332C1698.58 898.584 1712.99 896 1728 896C1735.23 896 1742.31 896.599 1749.21 897.75C1756.3 938.77 1760 980.953 1760 1024C1760 1067.05 1756.3 1109.23 1749.21 1150.25C1742.31 1151.4 1735.23 1152 1728 1152C1712.99 1152 1698.58 1149.42 1685.2 1144.67ZM1576.81 641.813C1530.67 575.2 1472.8 517.33 1406.19 471.19C1412.3 458.349 1420.66 446.316 1431.29 435.687C1436.39 430.592 1441.81 426.017 1447.48 421.961C1516.75 470.777 1577.22 531.247 1626.04 600.52C1621.98 606.194 1617.41 611.612 1612.31 616.707C1601.68 627.336 1589.65 635.704 1576.81 641.813ZM1390.84 385.793C1389.22 387.306 1387.62 388.853 1386.04 390.432C1371.91 404.558 1360.45 420.338 1351.64 437.148C1306.49 411.883 1258.12 391.68 1207.3 377.304C1212.95 359.207 1216 339.959 1216 320C1216 317.745 1215.96 315.499 1215.88 313.263C1277.81 329.942 1336.51 354.499 1390.84 385.793ZM897.75 298.787C938.77 291.696 980.953 288 1024 288C1067.05 288 1109.23 291.696 1150.25 298.787C1151.4 305.687 1152 312.773 1152 320C1152 335.012 1149.42 349.42 1144.67 362.804C1105.52 355.706 1065.19 352 1024 352C982.807 352 942.479 355.706 903.332 362.804C898.584 349.42 896 335.012 896 320C896 312.773 896.599 305.687 897.75 298.787ZM832.116 313.263C770.187 329.942 711.488 354.499 657.161 385.793C658.781 387.306 660.382 388.853 661.961 390.432C676.087 404.558 687.552 420.338 696.355 437.148C741.51 411.883 789.88 391.68 840.697 377.304C835.045 359.207 832 339.959 832 320C832 317.745 832.039 315.499 832.116 313.263ZM641.813 471.19C575.2 517.33 517.33 575.2 471.19 641.813C458.349 635.704 446.316 627.336 435.687 616.706C430.592 611.612 426.017 606.194 421.961 600.52C470.777 531.247 531.248 470.777 600.52 421.961C606.194 426.017 611.612 430.592 616.707 435.687C627.336 446.316 635.704 458.349 641.813 471.19ZM385.793 657.161C387.306 658.781 388.853 660.382 390.432 661.961C404.558 676.087 420.338 687.552 437.148 696.355C411.883 741.51 391.68 789.88 377.304 840.697C359.207 835.046 339.959 832 320 832C317.745 832 315.499 832.039 313.263 832.116C329.942 770.187 354.499 711.488 385.793 657.161ZM298.787 1150.25C291.696 1109.23 288 1067.05 288 1024C288 980.953 291.696 938.77 298.787 897.75C305.687 896.599 312.773 896 320 896C335.012 896 349.42 898.584 362.804 903.332C355.706 942.479 352 982.807 352 1024C352 1065.19 355.706 1105.52 362.804 1144.67C349.42 1149.42 335.012 1152 320 1152C312.773 1152 305.687 1151.4 298.787 1150.25ZM1728 1216C1730.25 1216 1732.5 1215.96 1734.74 1215.88C1718.06 1277.81 1693.5 1336.51 1662.21 1390.84C1660.69 1389.22 1659.15 1387.62 1657.57 1386.04C1643.44 1371.91 1627.66 1360.45 1610.85 1351.64C1636.12 1306.49 1656.32 1258.12 1670.7 1207.3C1688.79 1212.95 1708.04 1216 1728 1216ZM1406.19 1576.81C1472.8 1530.67 1530.67 1472.8 1576.81 1406.19C1589.65 1412.3 1601.68 1420.66 1612.31 1431.29C1617.41 1436.39 1621.98 1441.81 1626.04 1447.48C1577.22 1516.75 1516.75 1577.22 1447.48 1626.04C1441.81 1621.98 1436.39 1617.41 1431.29 1612.31C1420.66 1601.68 1412.3 1589.65 1406.19 1576.81ZM1351.64 1610.85C1306.49 1636.12 1258.12 1656.32 1207.3 1670.7C1212.95 1688.79 1216 1708.04 1216 1728C1216 1730.25 1215.96 1732.5 1215.88 1734.74C1277.81 1718.06 1336.51 1693.5 1390.84 1662.21C1389.22 1660.69 1387.62 1659.15 1386.04 1657.57C1371.91 1643.44 1360.45 1627.66 1351.64 1610.85ZM1150.25 1749.21C1109.23 1756.3 1067.05 1760 1024 1760C980.953 1760 938.77 1756.3 897.75 1749.21C896.599 1742.31 896 1735.23 896 1728C896 1712.99 898.584 1698.58 903.332 1685.2C942.479 1692.29 982.807 1696 1024 1696C1065.19 1696 1105.52 1692.29 1144.67 1685.2C1149.42 1698.58 1152 1712.99 1152 1728C1152 1735.23 1151.4 1742.31 1150.25 1749.21ZM840.697 1670.7C835.046 1688.79 832 1708.04 832 1728C832 1730.25 832.039 1732.5 832.116 1734.74C770.187 1718.06 711.488 1693.5 657.161 1662.21C658.781 1660.69 660.382 1659.15 661.961 1657.57C676.087 1643.44 687.552 1627.66 696.355 1610.85C741.51 1636.12 789.88 1656.32 840.697 1670.7ZM471.19 1406.19C517.33 1472.8 575.2 1530.67 641.813 1576.81C635.704 1589.65 627.335 1601.68 616.706 1612.31C611.612 1617.41 606.194 1621.98 600.52 1626.04C531.247 1577.22 470.777 1516.75 421.961 1447.48C426.017 1441.81 430.592 1436.39 435.687 1431.29C446.316 1420.66 458.349 1412.3 471.19 1406.19ZM437.148 1351.64C411.883 1306.49 391.68 1258.12 377.304 1207.3C359.207 1212.95 339.959 1216 320 1216C317.745 1216 315.499 1215.96 313.263 1215.88C329.942 1277.81 354.499 1336.51 385.793 1390.84C387.306 1389.22 388.853 1387.62 390.432 1386.04C404.558 1371.91 420.338 1360.45 437.148 1351.64Z" fill="#BF5E9F"/>
<path d="M1024 448C953.308 448 896 390.692 896 320C896 249.308 953.308 192 1024 192C1094.69 192 1152 249.308 1152 320C1152 390.692 1094.69 448 1024 448Z" fill="white"/>
<path d="M1431.29 616.706C1381.31 566.719 1381.31 485.674 1431.29 435.687C1481.28 385.7 1562.33 385.7 1612.31 435.687C1662.3 485.674 1662.3 566.719 1612.31 616.706C1562.33 666.694 1481.28 666.694 1431.29 616.706Z" fill="white"/>
<path d="M1599.82 1023.82C1599.82 953.13 1657.13 895.822 1727.82 895.822C1798.51 895.822 1855.82 953.13 1855.82 1023.82C1855.82 1094.51 1798.51 1151.82 1727.82 1151.82C1657.13 1151.82 1599.82 1094.51 1599.82 1023.82Z" fill="white"/>
<path d="M1431.29 1431.29C1481.28 1381.31 1562.33 1381.31 1612.31 1431.29C1662.3 1481.28 1662.3 1562.33 1612.31 1612.31C1562.33 1662.3 1481.28 1662.3 1431.29 1612.31C1381.31 1562.33 1381.31 1481.28 1431.29 1431.29Z" fill="white"/>
<path d="M1024 1856C953.308 1856 896 1798.69 896 1728C896 1657.31 953.308 1600 1024 1600C1094.69 1600 1152 1657.31 1152 1728C1152 1798.69 1094.69 1856 1024 1856Z" fill="white"/>
<path d="M435.688 1612.31C385.7 1562.33 385.7 1481.28 435.688 1431.29C485.675 1381.31 566.72 1381.31 616.707 1431.29C666.694 1481.28 666.694 1562.33 616.707 1612.31C566.72 1662.3 485.675 1662.3 435.688 1612.31Z" fill="white"/>
<path d="M191.822 1023.82C191.822 953.13 249.13 895.823 319.822 895.823C390.515 895.823 447.822 953.13 447.822 1023.82C447.822 1094.52 390.515 1151.82 319.822 1151.82C249.13 1151.82 191.822 1094.52 191.822 1023.82Z" fill="white"/>
<path d="M435.688 435.688C485.675 385.7 566.72 385.7 616.707 435.688C666.694 485.675 666.694 566.72 616.707 616.707C566.72 666.694 485.675 666.694 435.688 616.707C385.701 566.72 385.701 485.675 435.688 435.688Z" fill="white"/>
</svg>
